X: 33396
T: Quick-Step
R: polka
M: 2/4
K: Dmajor
|:df fa|ge eg|fd df|e/d/c/B/ A2|df fa|ge eg|fd c/d/e/c/|d2 d2:|
|:dc BA|GF ED|FA dA|FE E2|dc BA|GF ED|Ad f/e/d/c/|d2 d2:|
|:fd f/d/f/d/|ge eg|fd df|e/d/c/B/ A2|fd f/d/f/d/|ge eg|fd c/d/e/c/|d2 d2:|

